X:93
T:Bonapartes March. LIT.093
M:2/4
Q:1/4=110
L:1/8
B:Wm. Litten MS, 1802
Z:Village Music Project 2017 Anne Wride
K:D
D2 FA | DD/D/ D2 | d/e/f/g/ ab | a2 gf |
d/e/f/g/ ab | ee/e/ ez | f2 e/d/e/f/ | dd/d/ d2 |
a2 g/f/g/a/ | ff/f/ f2 | a2 fg/b/ | a2 fg/b/ |
af/a/ g/f/e/d/ | aa/a/ a2 :|
|: bc' d'b | aa/a/ a2 | g2 a/b/a/g/ | ff/f/f2 |
f2 g/f/e/a/ | df/d/ a2 |  f2 g/f/e/a/ | df/d/ ag |
f/e/f/g/ a>g | f/e/f/g/ a>g | f/e/f/g/ aA | dd/d/ d2 :|

